svg/umbrella_beach.svg

<svg xmlns="http://www.w3.org/2000/svg" viewBox="0 0 24 24"><path d="m13.13 14.56 1.43-1.43L21 19.57 19.57 21zm4.29-5.73 2.86-2.86C16.33 2 9.93 2 6 5.95c3.91-1.3 8.29-.25 11.42 2.88M5.95 6C2 9.93 2 16.33 5.97 20.28l2.86-2.86C5.7 14.29 4.65 9.91 5.95 6m.02-.04-.01.01C5.58 9 7.13 12.85 10.26 16L16 10.26c-3.14-3.13-7-4.68-10.03-4.3"/></svg>

<svg xmlns="http://www.w3.org/2000/svg" id="mdi-umbrella-beach" viewBox="0 0 24 24"><path d="M13.13 14.56L14.56 13.13L21 19.57L19.57 21L13.13 14.56M17.42 8.83L20.28 5.97C16.33 2 9.93 2 6 5.95C9.91 4.65 14.29 5.7 17.42 8.83M5.95 6C2 9.93 2 16.33 5.97 20.28L8.83 17.42C5.7 14.29 4.65 9.91 5.95 6M5.97 5.96L5.96 5.97C5.58 9 7.13 12.85 10.26 16L16 10.26C12.86 7.13 9 5.58 5.97 5.96Z" /></svg>
